!!!OTL: 679c. Klagelied ueber das verlorene Lieb.
!!!ODT: 1819
!!!ARE: Europa, Mitteleuropa, Deutschland, Rheinland, Bonn, Kessenich
!!!SCT: E0679G
!!!TXL: @@DE
!!!YEM: Copyright 1995, estate of Helmut Schaffrath.
**kern	**text
*ICvox	*
*M4/4	*
*met(c)	*
*k[f#]	*
*e:	*
!LO:TX:a:t=Ernst.	!
!LO:TX:a:t=Aus Keſſenich bei Bonn. 1819.	!
{8eL	Wie
8bJ	.
=1	=1
4.b	grü-
8a	-ne
4b	iſt
4ee	die
=2	=2
(4.cc#X	Lin-
8b)	.
4a	-de
4r}	.
=3	=3
{4b	o-
4ee	-ben
4dd	iſt
4cc#X	ſie
=4	=4
2b	breit
4r}	.
{4b	Jch
=5	=5
4.b	hab
8b	mein
4ee	Lieb
8eeL	ver-
8bJ	.
=6	=6
(4.b	-lo-
8ee)	.
8eeL	-ren,
8ddJ}	.
{8ccL	der
8bJ	.
=7	=7
4b	Scha-
8a	-den
8f#	iſt
8bL	mir
8aJ	.
8gL	ſo
8eJ	.
=8	=8
2.b}	leid,
{4cc	der
=9	=9
4b	Scha-
8a	-den
8f#	iſt
8bL	mir
8aJ	.
8gL	ſo
8f#J	.
=10	=10
2e	leid.
4r}	.
==	==
!!!AGN: Liebes - Lied, Leid, Klage
!!!ONB: ESAC (Essen Associative Code) Database: ERK2
!!!AMT: simple quadruple
!!!AIN: vox
!!!EED: Helmut Schaffrath
!!!EEV: 1.0
!!!GTL: Liebeslieder [Neuere (aus dem 18. bis 19. Jahrh.) - Liebesleid] 678-740
!!!URL-scan: https://rosdok.uni-rostock.de/mcrviewer/recordIdentifier/rosdok_ppn745177662/iview2/phys_0482.iview2?x=193.8995864193107&y=266.04312164965086&scale=0.7029437510502773&rotation=0&layout=singlePageLayout
!!!ENC: Anna Maria Matuszewska
!!!EEV: 2024/12/16
*-	*-
